X: 1
T: Blake's Hornpipe #1
R: hornpipe
Z: 2005 John Chambers <jc@trillian.mit.edu>
B: The Great Northern Tune Book v.2 #386
M: C|
L: 1/8
K: Bb
|: BFcB  fdfg | ecAc BAGF | GEDE CBcd   | ef ge/c/ {B}A4 \
|  BFdB  fdbg | ecAc BAGF | GEdE CB,A,c | ecBA  B4 :|
|: DB,FD BFdB | egec BAGF | GBeG Afcb   | agf=e f4 \
|  gede  fABF | (3GAB (3edc BAGF | BFDE (3FGA  (3Bcd | ecBA B4 :|
